tools/download-figma-icons/icons/outlined-medium/apartment-building.svg

<svg width="24" height="24" viewBox="0 0 24 24" fill="none" xmlns="http://www.w3.org/2000/svg">
<path fill-rule="evenodd" clip-rule="evenodd" d="M15 21.7504H21V8.25037H16.5C16.3838 8.25037 16.2682 8.22337 16.1647 8.17162L12 6.08887L7.83525 8.17162C7.73175 8.22337 7.61625 8.25037 7.5 8.25037H3V21.7504H9V16.5004C9 16.2499 9.12525 16.0159 9.33375 15.8764L11.5837 14.3764C11.8357 14.2076 12.1643 14.2076 12.4163 14.3764L14.6663 15.8764C14.8748 16.0159 15 16.2499 15 16.5004V21.7504ZM10.4999 16.9012V21.75H13.4999V16.9012L11.9999 15.9015L10.4999 16.9012ZM19.9604 2.25H4.03945L1.9297 6.75H2.24995H7.32295L11.6647 4.57875C11.8755 4.47375 12.1244 4.47375 12.3352 4.57875L16.677 6.75H21.7499H22.0702L19.9604 2.25ZM21.1162 1.18125L23.9287 7.18125C24.0382 7.4145 24.0202 7.686 23.8829 7.902C23.7449 8.11875 23.5064 8.25 23.2499 8.25H22.4999V22.5C22.4999 22.9147 22.1647 23.25 21.7499 23.25H2.24995C1.8352 23.25 1.49995 22.9147 1.49995 22.5V8.25H0.749948C0.493448 8.25 0.254948 8.11875 0.116948 7.902C-0.0203019 7.686 -0.0383019 7.4145 0.0711981 7.18125L2.8837 1.18125C3.0067 0.91875 3.27145 0.75 3.56245 0.75H20.4374C20.7284 0.75 20.9932 0.91875 21.1162 1.18125ZM5.24995 18H6.74995C7.1647 18 7.49995 18.3353 7.49995 18.75C7.49995 19.1647 7.1647 19.5 6.74995 19.5H5.24995C4.8352 19.5 4.49995 19.1647 4.49995 18.75C4.49995 18.3353 4.8352 18 5.24995 18ZM18.7499 18H17.2499C16.8352 18 16.4999 18.3353 16.4999 18.75C16.4999 19.1647 16.8352 19.5 17.2499 19.5H18.7499C19.1647 19.5 19.4999 19.1647 19.4999 18.75C19.4999 18.3353 19.1647 18 18.7499 18ZM5.24995 14.25H6.74995C7.1647 14.25 7.49995 14.5852 7.49995 15C7.49995 15.4148 7.1647 15.75 6.74995 15.75H5.24995C4.8352 15.75 4.49995 15.4148 4.49995 15C4.49995 14.5852 4.8352 14.25 5.24995 14.25ZM18.7499 14.25H17.2499C16.8352 14.25 16.4999 14.5852 16.4999 15C16.4999 15.4148 16.8352 15.75 17.2499 15.75H18.7499C19.1647 15.75 19.4999 15.4148 19.4999 15C19.4999 14.5852 19.1647 14.25 18.7499 14.25ZM5.24995 10.5H6.74995C7.1647 10.5 7.49995 10.8352 7.49995 11.25C7.49995 11.6648 7.1647 12 6.74995 12H5.24995C4.8352 12 4.49995 11.6648 4.49995 11.25C4.49995 10.8352 4.8352 10.5 5.24995 10.5ZM12.7499 10.5H11.2499C10.8352 10.5 10.4999 10.8352 10.4999 11.25C10.4999 11.6648 10.8352 12 11.2499 12H12.7499C13.1647 12 13.4999 11.6648 13.4999 11.25C13.4999 10.8352 13.1647 10.5 12.7499 10.5ZM18.7499 12H17.2499C16.8352 12 16.4999 11.6648 16.4999 11.25C16.4999 10.8352 16.8352 10.5 17.2499 10.5H18.7499C19.1647 10.5 19.4999 10.8352 19.4999 11.25C19.4999 11.6648 19.1647 12 18.7499 12Z" fill="black"/>
</svg>

<svg xmlns="http://www.w3.org/2000/svg" width="24" height="24" fill="none" viewBox="0 0 24 24"><path fill="currentColor" fill-rule="evenodd" d="M15 21.75h6V8.25h-4.5a.75.75 0 0 1-.335-.078L12 6.089 7.835 8.172a.75.75 0 0 1-.335.078H3v13.5h6V16.5c0-.25.125-.484.334-.624l2.25-1.5a.75.75 0 0 1 .832 0l2.25 1.5A.75.75 0 0 1 15 16.5zm-4.5-4.849v4.849h3v-4.849l-1.5-1zM19.96 2.25H4.04l-2.11 4.5h5.393l4.342-2.171a.75.75 0 0 1 .67 0l4.342 2.171h5.393zm1.156-1.069 2.813 6a.75.75 0 0 1-.68 1.069h-.75V22.5a.75.75 0 0 1-.75.75H2.25a.75.75 0 0 1-.75-.75V8.25H.75a.75.75 0 0 1-.68-1.069l2.813-6A.75.75 0 0 1 3.562.75h16.875a.75.75 0 0 1 .68.431M5.25 18h1.5a.75.75 0 1 1 0 1.5h-1.5a.75.75 0 1 1 0-1.5m13.5 0h-1.5a.75.75 0 1 0 0 1.5h1.5a.75.75 0 1 0 0-1.5m-13.5-3.75h1.5a.75.75 0 1 1 0 1.5h-1.5a.75.75 0 1 1 0-1.5m13.5 0h-1.5a.75.75 0 1 0 0 1.5h1.5a.75.75 0 1 0 0-1.5M5.25 10.5h1.5a.75.75 0 1 1 0 1.5h-1.5a.75.75 0 1 1 0-1.5m7.5 0h-1.5a.75.75 0 1 0 0 1.5h1.5a.75.75 0 1 0 0-1.5m6 1.5h-1.5a.75.75 0 1 1 0-1.5h1.5a.75.75 0 1 1 0 1.5" clip-rule="evenodd"/></svg>
